!!!SOCIAL_FUNCTION:	miscellaneous songs
!!!PDT:	1943
!!!OTL: No_87_Song_with_Termination_of_Mourning.krn
!!!REG: British Columbia
**kern
*staff1
=1-
=
*clefF4
*k[b-e-a-]
*M2/4
4B-\
8.c\L
16B-\Jk
=2
4B-\
16G\
16r
16B-\LL
16B-\JJ
=3
8.B-\L
16G\Jk
8B-\L
16B-\L
16B-\JJ
=4
8.G\L
16F\Jk
16E-\
16r
16B-\LL
16B-\JJ
=5
4G\
8G\L
16G\L
16G\JJ
=6
8.F\L
16E-\Jk
16E-\
16r
8E-\
=7
4F\
8r
16F\LL
16F\JJ
=8
4E-\
8F\L
8F\J
==:|!
*-
